X:191
T:Lady Anne Montgomery
Z: id:dc-reel-174
M:C
L:1/8
K:D Major
E|FADA FADA|FAdA BAdA|FADF EDB,G,|A,B,DE D3E|!
FADA FADA|FAdA BABc|dBAF E3F|DB,A,B, D3:|!
e|f3e fede|fedB ABde|f3e fede|fgaf efde|!
f2af efde|fedB ABde|f2ed BdAd|egfe d3:|!

